X: 25386
T: March Morning Drive
R: waltz
M: 3/4
K: Dmajor
A,DE|:F2 FD EF|G2 dG FG|A2 f2 fe|d2 F2 A2|
B4 B2|F2 D2 DE|F2 G2 AF|E3 A,DE|
F2 FD EF|G2 dG FG|A2 f2 fe|d2 F2 A2|
B,2D2E2|G2 F2 E2|1 D4f2|d3 A,DE:|2 D4 D/E/B,|D4 d2||
f3f dA|B2 d2 g2|a2 a2 b2|f4 fe|
d2 B2 G2|F2 D2 DE|F2 G2 AF|E4d2|
f3f dA|B2 d2 g2|a2 a2 b2|f4 fe|
d2 B2 G2|A2 c2 e2|d4 D/E/B,|D4 d2
f3f dA|B2 d2 g2|a2 a2 b2|f4 fe|
d2 B2 G2|F2 D2 DE|F2 A2 GF|E4d2|
f3f dA|B2 d2 g2|a2 a2 b2|f4 fe|
d2 B2 G2|A2 c2 e2|d4 f2|d6||

